web/workspace/public/assets/icons/location-map.svg

<svg xmlns="http://www.w3.org/2000/svg" width="30" height="30" viewBox="0 0 30 30"><path d="M15 16c2.762 0 5-2.238 5-5a5 5 0 1 0-10 0 5 5 0 0 0 5 5zm0-8a3.001 3.001 0 0 1 0 6 3 3 0 0 1 0-6zm0 18c2.333-1.75 11-7.461 11-15 0-6.075-4.925-11-11-11S4 4.925 4 11c0 7.539 8.667 13.25 11 15zm0-24c4.963 0 9 4.037 9 9 0 5.574-6.076 10.365-9 12.52-2.924-2.155-9-6.946-9-12.52 0-4.963 4.038-9 9-9zm12 18h-2.441a25.861 25.861 0 0 1-1.705 2h2.507l1.2 6H3.439l1.2-6h2.507a25.861 25.861 0 0 1-1.705-2H3L1 30h28l-2-10z"/></svg>

<?xml version="1.0" encoding="iso-8859-1"?>
<!-- Generator: Adobe Illustrator 14.0.0, SVG Export Plug-In . SVG Version: 6.00 Build 43363)  -->
<!DOCTYPE svg PUBLIC "-//W3C//DTD SVG 1.1//EN" "http://www.w3.org/Graphics/SVG/1.1/DTD/svg11.dtd">
<svg version="1.1" id="Layer_1" xmlns="http://www.w3.org/2000/svg" xmlns:xlink="http://www.w3.org/1999/xlink" x="0px" y="0px"
	 width="30px" height="30px" viewBox="0 0 30 30" style="enable-background:new 0 0 30 30;" xml:space="preserve">
<path d="M15,16c2.762,0,5-2.238,5-5s-2.238-5-5-5c-2.761,0-5,2.238-5,5S12.239,16,15,16z M15,8c1.656,0,3,1.344,3,3s-1.344,3-3,3
	c-1.657,0-3-1.344-3-3S13.343,8,15,8z M15,26c2.333-1.75,11-7.461,11-15c0-6.075-4.925-11-11-11S4,4.925,4,11
	C4,18.539,12.667,24.25,15,26z M15,2c4.963,0,9,4.037,9,9c0,5.574-6.076,10.365-9,12.52C12.076,21.365,6,16.574,6,11
	C6,6.037,10.038,2,15,2z M27,20h-2.441c-0.542,0.706-1.115,1.375-1.705,2h2.507l1.2,6H3.439l1.2-6h2.507
	c-0.59-0.625-1.163-1.294-1.705-2H3L1,30h28L27,20z"/>
</svg>
